;FLAVOR:Marlin
;TIME:185
;Filament used: 1.59501m
;Layer height: 1
;Generated with Cura_SteamEngine 3.1.0
M82 ; absolute extrusion mode
G21 ; set units to millimeters
G90 ; use absolute positioning
M82 ; absolute extrusion mode
M104 S210 ; set extruder temp
M140 S60 ; set bed temp
M190 S60 ; wait for bed temp
M109 S210 ; wait for extruder temp
G28 W ; home all without mesh bed level
G80 ; mesh bed leveling
G92 E0.0 ; reset extruder distance position
G1 Y-3.0 F1000.0 ; go outside print area
G1 X60.0 E9.0 F1000.0 ; intro line
G1 X100.0 E21.5 F1000.0 ; intro line
G92 E0.0 ; reset extruder distance position
;LAYER_COUNT:10
;LAYER:0
M107
G0 F3600 X111.473 Y92.226 Z0.4
;TYPE:SKIRT
G1 F1800 X111.874 Y91.78 E0.05984
G1 X112.331 Y91.392 E0.11966
G1 X112.836 Y91.068 E0.17953
G1 X113.379 Y90.814 E0.23935
G1 X113.952 Y90.635 E0.29925
G1 X114.542 Y90.533 E0.35899
G1 X115.009 Y90.509 E0.40565
G1 X134.991 Y90.51 E2.39946
G1 X135.59 Y90.55 E2.45936
G1 X136.177 Y90.669 E2.51912
G1 X136.744 Y90.865 E2.57898
G1 X137.279 Y91.135 E2.63878
G1 X137.774 Y91.474 E2.69864
G1 X138.22 Y91.875 E2.75849
G1 X138.608 Y92.333 E2.81838
G1 X138.932 Y92.837 E2.87817
G1 X139.186 Y93.381 E2.93807
G1 X139.365 Y93.953 E2.99788
G1 X139.467 Y94.544 E3.05772
G1 X139.491 Y95.01 E3.10428
G1 X139.491 Y114.991 E5.09799
G1 X139.451 Y115.589 E5.15779
G1 X139.332 Y116.177 E5.21765
G1 X139.136 Y116.744 E5.27751
G1 X138.866 Y117.279 E5.33731
G1 X138.527 Y117.774 E5.39717
G1 X138.126 Y118.22 E5.45702
G1 X137.669 Y118.608 E5.51683
G1 X137.164 Y118.932 E5.5767
G1 X136.621 Y119.186 E5.63652
G1 X136.048 Y119.365 E5.69642
G1 X135.458 Y119.467 E5.75616
G1 X134.991 Y119.491 E5.80282
G1 X115.009 Y119.491 E7.79663
G1 X114.411 Y119.451 E7.85643
G1 X113.823 Y119.332 E7.91629
G1 X113.256 Y119.136 E7.97615
G1 X112.721 Y118.866 E8.03595
G1 X112.226 Y118.527 E8.09581
G1 X111.78 Y118.126 E8.15566
G1 X111.392 Y117.669 E8.21548
G1 X111.068 Y117.164 E8.27534
G1 X110.814 Y116.621 E8.33516
G1 X110.635 Y116.048 E8.39506
G1 X110.533 Y115.458 E8.4548
G1 X110.509 Y114.991 E8.50146
G1 X110.509 Y95.009 E10.49527
G1 X110.549 Y94.411 E10.55508
G1 X110.668 Y93.823 E10.61494
G1 X110.864 Y93.256 E10.6748
G1 X111.134 Y92.721 E10.73459
G1 X111.473 Y92.226 E10.79446
G0 F3600 X112.067 Y92.448
G1 F1800 X112.463 Y92.055 E10.85012
G1 X112.911 Y91.721 E10.90588
G1 X113.402 Y91.456 E10.96155
G1 X113.926 Y91.263 E11.01727
G1 X114.472 Y91.146 E11.07299
G1 X115.009 Y91.109 E11.1267
G1 X134.991 Y91.11 E13.12051
G1 X135.548 Y91.15 E13.17623
G1 X136.093 Y91.269 E13.23189
G1 X136.616 Y91.465 E13.28762
G1 X137.106 Y91.733 E13.34335
G1 X137.552 Y92.069 E13.39907
G1 X137.945 Y92.464 E13.45466
G1 X138.279 Y92.912 E13.51042
G1 X138.545 Y93.403 E13.56614
G1 X138.738 Y93.927 E13.62186
G1 X138.854 Y94.473 E13.67756
G1 X138.891 Y95.01 E13.73127
G1 X138.891 Y114.991 E15.72498
G1 X138.851 Y115.548 E15.7807
G1 X138.732 Y116.093 E15.83636
G1 X138.536 Y116.616 E15.89209
G1 X138.268 Y117.105 E15.94773
G1 X137.933 Y117.552 E16.00347
G1 X137.537 Y117.945 E16.05914
G1 X137.089 Y118.279 E16.11489
G1 X136.598 Y118.544 E16.17057
G1 X136.074 Y118.737 E16.22628
G1 X135.528 Y118.854 E16.282
G1 X134.991 Y118.891 E16.33571
G1 X115.009 Y118.891 E18.32952
G1 X114.452 Y118.851 E18.38524
G1 X113.907 Y118.732 E18.4409
G1 X113.384 Y118.536 E18.49663
G1 X112.895 Y118.268 E18.55227
G1 X112.448 Y117.933 E18.60801
G1 X112.055 Y117.537 E18.66368
G1 X111.721 Y117.089 E18.71944
G1 X111.456 Y116.598 E18.77511
G1 X111.263 Y116.074 E18.83083
G1 X111.146 Y115.528 E18.88655
G1 X111.109 Y114.991 E18.94025
G1 X111.109 Y95.009 E20.93407
G1 X111.149 Y94.452 E20.98979
G1 X111.268 Y93.907 E21.04545
G1 X111.464 Y93.384 E21.10118
G1 X111.732 Y92.895 E21.15682
G1 X112.067 Y92.448 E21.21256
G0 F3600 X112.329 Y93.084
G1 F1800 X112.66 Y92.691 E21.26382
G1 X113.048 Y92.355 E21.31504
G1 X113.483 Y92.083 E21.36623
G1 X113.956 Y91.882 E21.41751
G1 X114.453 Y91.756 E21.46867
G1 X115.009 Y91.709 E21.52435
G1 X134.991 Y91.71 E23.51816
G1 X135.503 Y91.75 E23.5694
G1 X136.002 Y91.869 E23.62059
G1 X136.477 Y92.064 E23.67182
G1 X136.916 Y92.33 E23.72304
G1 X137.309 Y92.661 E23.77431
G1 X137.645 Y93.049 E23.82552
G1 X137.917 Y93.484 E23.87671
G1 X138.118 Y93.957 E23.92799
G1 X138.244 Y94.455 E23.97925
G1 X138.291 Y95.01 E24.03483
G1 X138.291 Y114.991 E26.02854
G1 X138.251 Y115.503 E26.07978
G1 X138.132 Y116.002 E26.13097
G1 X137.937 Y116.477 E26.1822
G1 X137.671 Y116.916 E26.23342
G1 X137.34 Y117.309 E26.28469
G1 X136.952 Y117.645 E26.3359
G1 X136.517 Y117.917 E26.38709
G1 X136.044 Y118.118 E26.43838
G1 X135.547 Y118.244 E26.48953
G1 X134.991 Y118.291 E26.54521
G1 X115.009 Y118.291 E28.53902
G1 X114.497 Y118.251 E28.59027
G1 X113.998 Y118.132 E28.64145
G1 X113.523 Y117.937 E28.69269
G1 X113.084 Y117.671 E28.7439
G1 X112.691 Y117.34 E28.79517
G1 X112.355 Y116.952 E28.84639
G1 X112.083 Y116.517 E28.89758
G1 X111.882 Y116.044 E28.94886
G1 X111.756 Y115.547 E29.00002
G1 X111.709 Y114.991 E29.05569
G1 X111.709 Y95.009 E31.04951
G1 X111.749 Y94.497 E31.10075
G1 X111.868 Y93.998 E31.15194
G1 X112.063 Y93.523 E31.20317
G1 X112.329 Y93.084 E31.25439
G0 F3600 X114.335 Y95.914
G0 X115.914 Y95.914
G0 X116.199 Y96.199
;TYPE:FILL
G1 F1800 X133.799 Y113.799 E33.73794
G1 X133.905 Y113.905
G0 F3600 X133.799 Y112.951
G1 F1800 X117.048 Y96.199 E36.10176
G1 X116.942 Y96.093
G0 F3600 X117.896 Y96.199
G1 F1800 X133.799 Y112.102 E38.34584
G1 X133.905 Y112.208
G0 F3600 X133.799 Y111.254
G1 F1800 X118.745 Y96.199 E40.47019
G1 X118.639 Y96.093
G0 F3600 X119.593 Y96.199
G1 F1800 X133.799 Y110.405 E42.47481
G1 X133.905 Y110.511
G0 F3600 X133.799 Y109.557
G1 F1800 X120.442 Y96.199 E44.3597
G1 X120.336 Y96.093
G0 F3600 X121.29 Y96.199
G1 F1800 X133.799 Y108.708 E46.12486
G1 X133.905 Y108.814
G0 F3600 X133.799 Y107.859
G1 F1800 X122.139 Y96.199 E47.77021
G1 X122.033 Y96.093
G0 F3600 X122.987 Y96.199
G1 F1800 X133.799 Y107.011 E49.2959
G1 X133.905 Y107.117
G0 F3600 X133.799 Y106.162
G1 F1800 X123.836 Y96.199 E50.70178
G1 X123.73 Y96.093
G0 F3600 X124.684 Y96.199
G1 F1800 X133.799 Y105.314 E51.98801
G1 X133.905 Y105.42
G0 F3600 X133.799 Y104.465
G1 F1800 X125.533 Y96.199 E53.15443
G1 X125.427 Y96.093
G0 F3600 X126.381 Y96.199
G1 F1800 X133.799 Y103.617 E54.20119
G1 X133.905 Y103.723
G0 F3600 X133.799 Y102.768
G1 F1800 X127.23 Y96.199 E55.12815
G1 X127.124 Y96.093
G0 F3600 X128.078 Y96.199
G1 F1800 X133.799 Y101.92 E55.93544
G1 X133.905 Y102.026
G0 F3600 X133.799 Y101.071
G1 F1800 X128.927 Y96.199 E56.62293
G1 X128.821 Y96.093
G0 F3600 X129.776 Y96.199
G1 F1800 X133.799 Y100.223 E57.19069
G1 X133.905 Y100.329
G0 F3600 X133.799 Y99.374
G1 F1800 X130.624 Y96.199 E57.63872
G1 X130.518 Y96.093
G0 F3600 X131.473 Y96.199
G1 F1800 X133.799 Y98.526 E57.96702
G1 X133.905 Y98.632
G0 F3600 X133.799 Y97.677
G1 F1800 X132.321 Y96.199 E58.17558
G1 X132.215 Y96.093
G0 F3600 X133.17 Y96.199
G1 F1800 X133.799 Y96.829 E58.26441
G0 F3600 X132.95 Y113.799
G1 F1800 X116.199 Y97.048 E60.62815
G1 X116.093 Y96.942
G0 F3600 X116.199 Y97.896
G1 F1800 X132.102 Y113.799 E62.87224
G1 X132.208 Y113.905
G0 F3600 X131.253 Y113.799
G1 F1800 X116.199 Y98.745 E64.99652
G1 X116.093 Y98.639
G0 F3600 X116.199 Y99.593
G1 F1800 X130.405 Y113.799 E67.00114
G1 X130.511 Y113.905
G0 F3600 X129.556 Y113.799
G1 F1800 X116.199 Y100.442 E68.88596
G1 X116.093 Y100.336
G0 F3600 X116.199 Y101.29
G1 F1800 X128.708 Y113.799 E70.65111
G1 X128.814 Y113.905
G0 F3600 X127.859 Y113.799
G1 F1800 X116.199 Y102.139 E72.29646
G1 X116.093 Y102.033
G0 F3600 X116.199 Y102.987
G1 F1800 X127.011 Y113.799 E73.82215
G1 X127.117 Y113.905
G0 F3600 X126.162 Y113.799
G1 F1800 X116.199 Y103.836 E75.22804
G1 X116.093 Y103.73
G0 F3600 X116.199 Y104.685
G1 F1800 X125.314 Y113.799 E76.5142
G1 X125.42 Y113.905
G0 F3600 X124.465 Y113.799
G1 F1800 X116.199 Y105.533 E77.68062
G1 X116.093 Y105.427
G0 F3600 X116.199 Y106.382
G1 F1800 X123.617 Y113.799 E78.72731
G1 X123.723 Y113.905
G0 F3600 X122.768 Y113.799
G1 F1800 X116.199 Y107.23 E79.65426
G1 X116.093 Y107.124
G0 F3600 X116.199 Y108.079
G1 F1800 X121.92 Y113.799 E80.46149
G1 X122.026 Y113.905
G0 F3600 X121.071 Y113.799
G1 F1800 X116.199 Y108.927 E81.14898
G1 X116.093 Y108.821
G0 F3600 X116.199 Y109.776
G1 F1800 X120.223 Y113.799 E81.71674
G1 X120.329 Y113.905
G0 F3600 X119.374 Y113.799
G1 F1800 X116.199 Y110.624 E82.16477
G1 X116.093 Y110.518
G0 F3600 X116.199 Y111.473
G1 F1800 X118.525 Y113.799 E82.49299
G1 X118.631 Y113.905
G0 F3600 X117.677 Y113.799
G1 F1800 X116.199 Y112.321 E82.70155
G1 X116.093 Y112.215
G0 F3600 X116.199 Y113.17
G1 F1800 X116.828 Y113.799 E82.79031
G0 F3600 X134.03 Y114.03
G0 X134.1 Y114.1
;TYPE:WALL-INNER
G1 F1800 X115.9 Y114.1 E84.60631
G1 X115.9 Y95.9 E86.42232
G1 X134.1 Y95.9 E88.23832
G1 X134.1 Y114.1 E90.05432
G0 F3600 X134.7 Y114.7
;TYPE:WALL-OUTER
G1 F1800 X115.3 Y114.7 E91.99006
G1 X115.3 Y95.3 E93.9258
G1 X134.7 Y95.3 E95.86154
G1 X134.7 Y114.7 E97.79728
G0 F3600 X134.5 Y114.7
M104 S200
G0 X133.5 Y113.676
G0 X116.199 Y96.829
;TIME_ELAPSED:39.614794
;LAYER:1
M140 S60
M106 S255
G0 F5400 X116.199 Y96.829 Z1.4
;TYPE:FILL
G1 F2700 X116.828 Y96.199 E98.01936
G0 F5400 X117.677 Y96.199
G1 F2700 X116.199 Y97.677 E98.54076
G1 X116.093 Y97.783
G0 F5400 X116.199 Y98.526
G1 F2700 X118.525 Y96.199 E99.3615
G1 X118.631 Y96.093
G0 F5400 X119.374 Y96.199
G1 F2700 X116.199 Y99.374 E100.48156
G1 X116.093 Y99.48
G0 F5400 X116.199 Y100.223
G1 F2700 X120.223 Y96.199 E101.90114
G1 X120.329 Y96.093
G0 F5400 X121.071 Y96.199
G1 F2700 X116.199 Y101.071 E103.61987
G1 X116.093 Y101.177
G0 F5400 X116.199 Y101.92
G1 F2700 X121.92 Y96.199 E105.63811
G1 X122.026 Y96.093
G0 F5400 X122.768 Y96.199
G1 F2700 X116.199 Y102.768 E107.9555
G1 X116.093 Y102.874
G0 F5400 X116.199 Y103.617
G1 F2700 X123.617 Y96.199 E110.5724
G1 X123.723 Y96.093
G0 F5400 X124.465 Y96.199
G1 F2700 X116.199 Y104.465 E113.48845
G1 X116.093 Y104.571
G0 F5400 X116.199 Y105.314
G1 F2700 X125.314 Y96.199 E116.70401
G1 X125.42 Y96.093
G0 F5400 X126.162 Y96.199
G1 F2700 X116.199 Y106.162 E120.21873
G1 X116.093 Y106.268
G0 F5400 X116.199 Y107.011
G1 F2700 X127.011 Y96.199 E124.03296
G1 X127.117 Y96.093
G0 F5400 X127.859 Y96.199
G1 F2700 X116.199 Y107.859 E128.14634
G1 X116.093 Y107.965
G0 F5400 X116.199 Y108.708
G1 F2700 X128.708 Y96.199 E132.55922
G1 X128.814 Y96.093
G0 F5400 X129.556 Y96.199
G1 F2700 X116.199 Y109.557 E137.27144
G1 X116.093 Y109.663
G0 F5400 X116.199 Y110.405
G1 F2700 X130.405 Y96.199 E142.28299
G1 X130.511 Y96.093
G0 F5400 X131.253 Y96.199
G1 F2700 X116.199 Y111.254 E147.59387
G1 X116.093 Y111.36
G0 F5400 X116.199 Y112.102
G1 F2700 X132.102 Y96.199 E153.20409
G1 X132.208 Y96.093
G0 F5400 X132.95 Y96.199
G1 F2700 X116.199 Y112.951 E159.11363
G1 X116.093 Y113.057
G0 F5400 X116.199 Y113.799
G1 F2700 X133.799 Y96.199 E165.32251
G1 X133.905 Y96.093
G0 F5400 X133.799 Y97.048
G1 F2700 X117.048 Y113.799 E171.23187
G1 X116.942 Y113.905
G0 F5400 X117.896 Y113.799
G1 F2700 X133.799 Y97.896 E176.84209
G1 X133.905 Y97.79
G0 F5400 X133.799 Y98.745
G1 F2700 X118.745 Y113.799 E182.15279
G1 X118.639 Y113.905
G0 F5400 X119.593 Y113.799
G1 F2700 X133.799 Y99.593 E187.16434
G1 X133.905 Y99.487
G0 F5400 X133.799 Y100.442
G1 F2700 X120.442 Y113.799 E191.87638
G1 X120.336 Y113.905
G0 F5400 X121.29 Y113.799
G1 F2700 X133.799 Y101.29 E196.28927
G1 X133.905 Y101.184
G0 F5400 X133.799 Y102.139
G1 F2700 X122.139 Y113.799 E200.40265
G1 X122.033 Y113.905
G0 F5400 X122.987 Y113.799
G1 F2700 X133.799 Y102.987 E204.21688
G1 X133.905 Y102.881
G0 F5400 X133.799 Y103.836
G1 F2700 X123.836 Y113.799 E207.73159
G1 X123.73 Y113.905
G0 F5400 X124.684 Y113.799
G1 F2700 X133.799 Y104.685 E210.94698
G1 X133.905 Y104.579
G0 F5400 X133.799 Y105.533
G1 F2700 X125.533 Y113.799 E213.86303
G1 X125.427 Y113.905
G0 F5400 X126.381 Y113.799
G1 F2700 X133.799 Y106.382 E216.47976
G1 X133.905 Y106.276
G0 F5400 X133.799 Y107.23
G1 F2700 X127.23 Y113.799 E218.79715
G1 X127.124 Y113.905
G0 F5400 X128.078 Y113.799
G1 F2700 X133.799 Y108.079 E220.81521
G1 X133.905 Y107.973
G0 F5400 X133.799 Y108.927
G1 F2700 X128.927 Y113.799 E222.53394
G1 X128.821 Y113.905
G0 F5400 X129.776 Y113.799
G1 F2700 X133.799 Y109.776 E223.95316
G1 X133.905 Y109.67
G0 F5400 X133.799 Y110.624
G1 F2700 X130.624 Y113.799 E225.07323
G1 X130.518 Y113.905
G0 F5400 X131.473 Y113.799
G1 F2700 X133.799 Y111.473 E225.89379
G1 X133.905 Y111.367
G0 F5400 X133.799 Y112.321
G1 F2700 X132.321 Y113.799 E226.41519
G1 X132.215 Y113.905
G0 F5400 X133.17 Y113.799
G1 F2700 X133.799 Y113.17 E226.63709
G0 F5400 X134.1 Y114.1
;TYPE:WALL-INNER
G1 F2700 X115.9 Y114.1 E231.1771
G1 X115.9 Y95.9 E235.71711
G1 X134.1 Y95.9 E240.25712
G1 X134.1 Y114.1 E244.79712
G0 F5400 X134.7 Y114.7
;TYPE:WALL-OUTER
G1 F4590 X115.3 Y114.7 E249.63647
G1 X115.3 Y95.3 E254.47582
G1 X134.7 Y95.3 E259.31517
G1 X134.7 Y114.7 E264.15452
G0 F5400 X134.5 Y114.7
G0 X133.5 Y113.676
G0 X116.199 Y96.199
;TIME_ELAPSED:58.238879
;LAYER:2
G0 F7200 X116.199 Y96.199 Z2.4
;TYPE:FILL
G1 F3600 X133.799 Y113.799 E270.3634
G1 X133.905 Y113.905
G0 F7200 X133.799 Y112.951
G1 F3600 X117.048 Y96.199 E276.27294
G1 X116.942 Y96.093
G0 F7200 X117.896 Y96.199
G1 F3600 X133.799 Y112.102 E281.88315
G1 X133.905 Y112.208
G0 F7200 X133.799 Y111.254
G1 F3600 X118.745 Y96.199 E287.19404
G1 X118.639 Y96.093
G0 F7200 X119.593 Y96.199
G1 F3600 X133.799 Y110.405 E292.20559
G1 X133.905 Y110.511
G0 F7200 X133.799 Y109.557
G1 F3600 X120.442 Y96.199 E296.91781
G1 X120.336 Y96.093
G0 F7200 X121.29 Y96.199
G1 F3600 X133.799 Y108.708 E301.33069
G1 X133.905 Y108.814
G0 F7200 X133.799 Y107.859
G1 F3600 X122.139 Y96.199 E305.44407
G1 X122.033 Y96.093
G0 F7200 X122.987 Y96.199
G1 F3600 X133.799 Y107.011 E309.2583
G1 X133.905 Y107.117
G0 F7200 X133.799 Y106.162
G1 F3600 X123.836 Y96.199 E312.77301
G1 X123.73 Y96.093
G0 F7200 X124.684 Y96.199
G1 F3600 X133.799 Y105.314 E315.98858
G1 X133.905 Y105.42
G0 F7200 X133.799 Y104.465
G1 F3600 X125.533 Y96.199 E318.90463
G1 X125.427 Y96.093
G0 F7200 X126.381 Y96.199
G1 F3600 X133.799 Y103.617 E321.52153
G1 X133.905 Y103.723
G0 F7200 X133.799 Y102.768
G1 F3600 X127.23 Y96.199 E323.83892
G1 X127.124 Y96.093
G0 F7200 X128.078 Y96.199
G1 F3600 X133.799 Y101.92 E325.85716
G1 X133.905 Y102.026
G0 F7200 X133.799 Y101.071
G1 F3600 X128.927 Y96.199 E327.57589
G1 X128.821 Y96.093
G0 F7200 X129.776 Y96.199
G1 F3600 X133.799 Y100.223 E328.99529
G1 X133.905 Y100.329
G0 F7200 X133.799 Y99.374
G1 F3600 X130.624 Y96.199 E330.11536
G1 X130.518 Y96.093
G0 F7200 X131.473 Y96.199
G1 F3600 X133.799 Y98.526 E330.93609
G1 X133.905 Y98.632
G0 F7200 X133.799 Y97.677
G1 F3600 X132.321 Y96.199 E331.4575
G1 X132.215 Y96.093
G0 F7200 X133.17 Y96.199
G1 F3600 X133.799 Y96.829 E331.67957
G0 F7200 X132.95 Y113.799
G1 F3600 X116.199 Y97.048 E337.58894
G1 X116.093 Y96.942
G0 F7200 X116.199 Y97.896
G1 F3600 X132.102 Y113.799 E343.19915
G1 X132.208 Y113.905
G0 F7200 X131.253 Y113.799
G1 F3600 X116.199 Y98.745 E348.50985
G1 X116.093 Y98.639
G0 F7200 X116.199 Y99.593
G1 F3600 X130.405 Y113.799 E353.5214
G1 X130.511 Y113.905
G0 F7200 X129.556 Y113.799
G1 F3600 X116.199 Y100.442 E358.23345
G1 X116.093 Y100.336
G0 F7200 X116.199 Y101.29
G1 F3600 X128.708 Y113.799 E362.64633
G1 X128.814 Y113.905
G0 F7200 X127.859 Y113.799
G1 F3600 X116.199 Y102.139 E366.75971
G1 X116.093 Y102.033
G0 F7200 X116.199 Y102.987
G1 F3600 X127.011 Y113.799 E370.57394
G1 X127.117 Y113.905
G0 F7200 X126.162 Y113.799
G1 F3600 X116.199 Y103.836 E374.08866
G1 X116.093 Y103.73
G0 F7200 X116.199 Y104.685
G1 F3600 X125.314 Y113.799 E377.30404
G1 X125.42 Y113.905
G0 F7200 X124.465 Y113.799
G1 F3600 X116.199 Y105.533 E380.2201
G1 X116.093 Y105.427
G0 F7200 X116.199 Y106.382
G1 F3600 X123.617 Y113.799 E382.83682
G1 X123.723 Y113.905
G0 F7200 X122.768 Y113.799
G1 F3600 X116.199 Y107.23 E385.15421
G1 X116.093 Y107.124
G0 F7200 X116.199 Y108.079
G1 F3600 X121.92 Y113.799 E387.17227
G1 X122.026 Y113.905
G0 F7200 X121.071 Y113.799
G1 F3600 X116.199 Y108.927 E388.891
G1 X116.093 Y108.821
G0 F7200 X116.199 Y109.776
G1 F3600 X120.223 Y113.799 E390.3104
G1 X120.329 Y113.905
G0 F7200 X119.374 Y113.799
G1 F3600 X116.199 Y110.624 E391.43047
G1 X116.093 Y110.518
