;FLAVOR:Marlin
;TIME:661579
;Filament used: 77746.4m
;Layer height: 2
;Generated with Cura_SteamEngine 3.1.0
M82 ; absolute extrusion mode
G21 ; set units to millimeters
G90 ; use absolute positioning
M82 ; absolute extrusion mode
M104 S210 ; set extruder temp
M140 S60 ; set bed temp
M190 S60 ; wait for bed temp
M109 S210 ; wait for extruder temp
G28 W ; home all without mesh bed level
G80 ; mesh bed leveling
G92 E0.0 ; reset extruder distance position
G1 Y-3.0 F1000.0 ; go outside print area
G1 X60.0 E9.0 F1000.0 ; intro line
G1 X100.0 E21.5 F1000.0 ; intro line
G92 E0.0 ; reset extruder distance position
;LAYER_COUNT:489
;LAYER:0
M107
G0 F3600 X781.575 Y1319.183 Z2
;TYPE:FILL
G1 F1800 X817.336 Y1354.943 E1261.54821
G1 X822.639 Y1360.246
G0 F3600 X783.895 Y1363.929
G1 F1800 X778.181 Y1358.215 E1463.12499
G1 X772.878 Y1352.912
G0 F3600 X814.333 Y1309.514
G1 F1800 X850.778 Y1345.959 E2748.82079
G1 X856.081 Y1351.262
G0 F3600 X884.219 Y1336.974
G1 F1800 X847.537 Y1300.292 E4042.8774
G1 X842.234 Y1294.989
G0 F3600 X880.741 Y1291.069
G1 F1800 X917.66 Y1327.988 E5345.29483
G1 X922.963 Y1333.291
G0 F3600 X951.102 Y1319.004
G1 F1800 X913.945 Y1281.847 E6656.10835
G1 X908.642 Y1276.544
G0 F3600 X946.832 Y1272.307
G1 F1800 X984.543 Y1310.019 E7986.48335
G1 X989.846 Y1315.322
G0 F3600 X1018.006 Y1301.055
G1 F1800 X979.632 Y1262.681 E9340.22983
G1 X974.329 Y1257.378
G0 F3600 X1012.432 Y1253.055
G1 F1800 X1051.269 Y1291.891 E10710.29225
G1 X1056.572 Y1297.194
G0 F3600 X1084.383 Y1282.579
G1 F1800 X1044.895 Y1243.091 E12103.33809
G1 X1039.592 Y1237.788
G0 F3600 X1076.899 Y1232.669
G1 F1800 X1117.114 Y1272.884 E13522.03082
G1 X1122.417 Y1278.187
G0 F3600 X1149.325 Y1262.669
G1 F1800 X1108.215 Y1221.559 E14972.29709
G1 X1102.912 Y1216.256
G0 F3600 X1139.215 Y1210.132
G1 F1800 X1181.536 Y1252.453 E16465.28465
G1 X1186.839 Y1257.756
G0 F3600 X1213.726 Y1242.216
G1 F1800 X1170.215 Y1198.705 E18000.25268
G1 X1164.912 Y1193.402
G0 F3600 X1200.578 Y1186.643
G1 F1800 X1244.808 Y1230.872 E19560.56774
G1 X1250.111 Y1236.175
G0 F3600 X1275.89 Y1219.528
G1 F1800 X1229.979 Y1173.616 E21180.21988
G1 X1224.676 Y1168.313
G0 F3600 X1259.379 Y1160.59
G1 F1800 X1305.98 Y1207.191 E22824.19601
G1 X1311.283 Y1212.494
G0 F3600 X1335.926 Y1194.711
G1 F1800 X1288.691 Y1147.476 E24490.53819
G1 X1283.388 Y1142.173
G0 F3600 X1316.949 Y1133.308
G1 F1800 X1365.872 Y1182.231 E26216.42914
G1 X1371.175 Y1187.534
G0 F3600 X1394.804 Y1168.737
G1 F1800 X1344.881 Y1118.813 E27977.61542
G1 X1339.578 Y1113.51
G0 F3600 X1372.804 Y1104.31
G1 F1800 X1423.463 Y1154.969 E29764.74845
G1 X1428.766 Y1160.272
G0 F3600 X1452.122 Y1141.201
G1 F1800 X1399.671 Y1088.751 E31615.08149
G1 X1394.368 Y1083.448
G0 F3600 X1425.518 Y1072.171
G1 F1800 X1479.791 Y1126.444 E33529.70813
G1 X1485.094 Y1131.747
G0 F3600 X1507.032 Y1111.259
G1 F1800 X1451.061 Y1055.288 E35504.23631
G1 X1445.758 Y1049.985
G0 F3600 X1475.116 Y1036.916
G1 F1800 X1533.633 Y1095.433 E37568.58151
G1 X1538.936 Y1100.736
G0 F3600 X1559.125 Y1078.499
G1 F1800 X1498.239 Y1017.613 E39716.49959
G1 X1492.936 Y1012.31
G0 F3600 X1519.315 Y996.263
G1 F1800 X1583.912 Y1060.859 E41995.31557
G1 X1589.215 Y1066.162
G0 F3600 X1607.298 Y1041.819
G1 F1800 X1539.218 Y973.739 E44397.02142
G1 X1533.915 Y968.436
G0 F3600 X1554.205 Y946.3
G1 F1800 X1629.16 Y1021.255 E47041.26147
G1 X1634.463 Y1026.558
G0 F3600 X1649.314 Y998.982
G1 F1800 X1561.026 Y910.694 E50155.85909
G1 X1555.723 Y905.391
G0 F3600 X1546.566 Y853.808
G1 F1800 X1668.093 Y975.335 E54443.05221
G1 X1673.396 Y980.638
G0 F3600 X1683.76 Y948.575
G1 F1800 X1538.042 Y802.857 E59583.64818
G1 X1532.739 Y797.554
G0 F3600 X1568.573 Y790.962
G1 F1800 X1696.835 Y919.224 E64108.43661
G1 X1702.138 Y924.527
G0 F3600 X1706.529 Y886.491
G1 F1800 X1589.099 Y769.062 E68251.07934
G1 X1583.796 Y763.759
G0 F3600 X1613.947 Y751.484
G1 F1800 X1712.152 Y849.688 E71715.50829
G1 X1717.455 Y854.991
G0 F3600 X1713.818 Y808.928
G1 F1800 X1664.828 Y759.938 E73443.76284
G1 X1659.525 Y754.635
G0 F3600 X1505.387 Y812.629
G1 F1800 X1493.559 Y800.801 E73861.02748
G1 X1488.256 Y795.498
G0 F3600 X1535.998 Y788.038
G0 X1543.335 Y786.521
G0 X1545.538 Y785.847
G0 X1552.406 Y783.099
G0 X1553.694 Y782.455
G0 X1560.11 Y778.618
G0 X1562.074 Y777.187
G0 X1567.514 Y772.429
G0 X1568.531 Y771.424
G0 X1573.43 Y765.529
G0 X1577.147 Y760.126
G0 X1577.051 Y760.102
;TYPE:WALL-OUTER
G1 F1800 X1574.728 Y736.981 E74440.68689
G1 X1574.687 Y735.892 E74467.87135
G1 X1574.802 Y735.036 E74489.41619
G1 X1575.055 Y734.199 E74511.22823
G1 X1575.428 Y733.469 E74531.67757
G1 X1575.956 Y732.745 E74554.03038
G1 X1576.546 Y732.183 E74574.35634
G1 X1577.27 Y731.684 E74596.29069
G1 X1578.019 Y731.346 E74616.7889
G1 X1578.873 Y731.113 E74638.87067
G1 X1579.677 Y731.043 E74659.0024
G1 X1581.062 Y731.141 E74693.63774
G1 X1581.581 Y731.222
G1 X1635.992 Y739.759 E76067.53034
G1 X1691.217 Y749.256 E77465.34521
G1 X1698.677 Y751.248 E77657.95574
G1 X1705.589 Y754.327 E77846.70954
G1 X1711.95 Y758.663 E78038.74344
G1 X1717.449 Y763.855 E78227.39812
G1 X1722.023 Y770.064 E78419.77185
G1 X1725.484 Y776.763 E78607.86374
G1 X1727.715 Y784.041 E78797.75257
G1 X1728.796 Y792.245 E79004.1711
G1 X1728.855 Y833.587 E80035.45253
G1 X1724.888 Y872.866 E81020.2556
G1 X1717.588 Y906.029 E81867.3152
G1 X1705.001 Y940.683 E82787.01922
G1 X1687.398 Y973.563 E83717.36115
G1 X1676.028 Y990.379 E84223.72505
G1 X1647.396 Y1024.697 E85338.61106
G1 X1612.667 Y1057.364 E86527.95528
G1 X1612.454 Y1057.549 E86534.99289
G1 X1582.902 Y1080.713 E87471.64461
G1 X1532.118 Y1114.45 E88992.51857
G1 X1467.787 Y1150.31 E90829.74131
G1 X1467.43 Y1150.49 E90839.71464
G1 X1378.911 Y1193.016 E93289.42952
G1 X1377.771 Y1193.524 E93320.5626
G1 X1285.537 Y1231.962 E95813.15005
G1 X1284.404 Y1232.39 E95843.36219
G1 X1218.077 Y1256.598 E97604.65208
G1 X1216.973 Y1256.953 E97633.58023
G1 X1107.568 Y1291.649 E100496.65052
G1 X1106.455 Y1291.957 E100525.45788
G1 X1035.165 Y1312.004 E102372.76791
G1 X1012.495 Y1318.052 E102958.05207
G1 X1003.585 Y1320.444 E103188.18299
G1 X1003.439 Y1320.476 E103191.91142
G1 X785.254 Y1379.097 E108827.57879
G1 X772.367 Y1382.559 E109160.44424
G1 X760.724 Y1385.839 E109462.18496
G1 X761.094 Y1381.58
G1 X762.249 Y1368.287 E109710.11738
G1 X767.552 Y1307.295 E111237.30894
G1 X806.871 Y1296.02 E112257.65487
G1 X915.817 Y1265.76 E115078.2056
G1 X918.028 Y1265.128 E115135.56819
G1 X1026.872 Y1233.185 E117965.20172
G1 X1081.038 Y1215.548 E119386.20118
G1 X1083.356 Y1214.737 E119447.46081
G1 X1175.608 Y1180.731 E121900.06534
G1 X1190.207 Y1174.823 E122292.92912
G1 X1191.474 Y1174.271 E122327.40387
G1 X1279.226 Y1135.391 E124721.62268
G1 X1295.446 Y1127.551 E125171.01821
G1 X1296.722 Y1126.905 E125206.69487
G1 X1365.392 Y1091.27 E127136.58535
G1 X1397.486 Y1072.684 E128061.7306
G1 X1398.911 Y1071.776 E128103.88036
G1 X1446.751 Y1040.157 E129534.35235
G1 X1456.553 Y1032.874 E129838.97003
G1 X1490.634 Y1004.423 E130946.42407
G1 X1514.608 Y979.528 E131808.57012
G1 X1514.716 Y979.391 E131812.9218
G1 X1518.022 Y975.957 E131931.82909
G1 X1518.584 Y975.646 E131947.85164
G1 X1525.151 Y967.693 E132205.13191
G1 X1532.195 Y957.586 E132512.44238
G1 X1533.675 Y955.057 E132585.53723
G1 X1539.847 Y941.962 E132946.65805
G1 X1543.932 Y927.864 E133312.79983
G1 X1544.504 Y924.908 E133387.90538
G1 X1545.995 Y910.517 E133748.81191
G1 X1545.184 Y895.865 E134114.867
G1 X1544.747 Y892.885 E134189.99843
G1 X1541.388 Y878.808 E134551.00913
G1 X1535.774 Y865.246 E134917.15431
G1 X1534.375 Y862.581 E134992.23627
G1 X1526.55 Y850.41 E135353.1772
G1 X1516.763 Y839.47 E135719.34289
G1 X1514.562 Y837.419 E135794.38993
G1 X1503.15 Y828.523 E136155.33836
G1 X1490.288 Y821.433 E136521.69957
G1 X1487.647 Y820.279 E136593.59426
G1 X1486.804 Y819.979 E136615.91489
G1 X1473.823 Y815.611 E136957.56788
G1 X1459.43 Y813.193 E137321.63407
G1 X830.314 Y758.504 E153074.18069
G1 X815.371 Y757.205 E153448.34112
G1 X816.67 Y742.261 E153822.5264
G1 X817.996 Y727.018 E154204.20057
G1 X1523.58 Y788.354 E171871.44217
G1 X1526.209 Y788.512 E171937.14117
G1 X1527.257 Y788.528 E171963.28669
G1 X1534.553 Y788.196 E172145.47448
G1 X1535.992 Y787.999 E172181.70529
G1 X1543.326 Y786.483 E172368.52031
G1 X1545.525 Y785.81 E172425.88607
G1 X1552.39 Y783.063 E172610.3352
G1 X1553.675 Y782.42 E172646.17875
G1 X1560.088 Y778.585 E172832.57358
G1 X1562.05 Y777.156 E172893.12128
G1 X1567.487 Y772.4 E173073.3149
G1 X1568.502 Y771.397 E173108.91073
G1 X1573.399 Y765.505 E173300.02386
G1 X1577.051 Y760.102 E173462.70248
G0 F3600 X1577.032 Y759.903
M104 S200
G0 X1605.557 Y765.35
G0 X1539.884 Y941.976
G0 X1533.71 Y955.075
G0 X1532.228 Y957.607
G0 X1525.182 Y967.717
G0 X1518.609 Y975.676
G0 X1490.661 Y1004.452
G0 X1456.577 Y1032.905
G0 X1446.773 Y1040.189
G0 X1397.506 Y1072.718
G0 X1365.411 Y1091.305
G0 X1295.463 Y1127.586
G0 X1279.242 Y1135.427
G0 X1190.222 Y1174.859
G0 X1175.622 Y1180.768
G0 X1083.369 Y1214.774
G0 X829.051 Y1305.395
;TIME_ELAPSED:1525.484843
;LAYER:1
M140 S60
M106 S255
G0 F5400 X829.051 Y1305.395 Z4
;TYPE:FILL
G1 F2700 X778.368 Y1356.078 E175250.68218
G1 X773.065 Y1361.381
G0 F5400 X823.681 Y1353.192
G1 F2700 X887.793 Y1289.079 E177512.42375
G1 X893.096 Y1283.776
G0 F5400 X881.693 Y1337.606
G1 F2700 X947.095 Y1272.203 E179819.67356
G1 X952.398 Y1266.9
G0 F5400 X939.705 Y1322.02
G1 F2700 X1007.144 Y1254.581 E182198.76641
G1 X1012.447 Y1249.278
G0 F5400 X997.717 Y1306.434
G1 F2700 X1068.926 Y1235.226 E184710.83855
G1 X1074.229 Y1229.923
G0 F5400 X1056.089 Y1290.489
G1 F2700 X1134.898 Y1211.68 E187491.03885
G1 X1140.201 Y1206.377
G0 F5400 X1177.81 Y1253.621
G1 F2700 X1280.029 Y1151.402 E191097.09013
G1 X1285.332 Y1146.099
G0 F5400 X1311.34 Y1204.944
G1 F2700 X1713.734 Y802.55 E205292.62516
G1 X1719.037 Y797.247
G0 F5400 X1702.987 Y770.87
G1 F2700 X1560.738 Y913.119 E210310.84279
G1 X1555.435 Y918.422
G0 F5400 X1555.952 Y875.479
G1 F2700 X1670.516 Y760.915 E214352.39727
G1 X1675.819 Y755.612
G0 F5400 X1634.314 Y754.69
G1 F2700 X1542.081 Y846.924 E217606.18307
G1 X1536.778 Y852.227
G0 F5400 X1522.191 Y824.387
G1 F2700 X1545.247 Y801.331 E218419.54573
G1 X1550.55 Y796.028
G0 F5400 X1502.568 Y801.584
G1 F2700 X1496.396 Y807.756 E218637.2797
G1 X1491.093 Y813.059
G0 F5400 X1553.61 Y782.324
G0 X1559.609 Y778.737
G0 X1591.589 Y754.989
G1 F2700 X1597.651 Y748.927 E218851.13312
G1 X1602.954 Y743.624
G0 F5400 X1712.437 Y846.273
G1 F2700 X1385.538 Y1173.172 E230383.37815
G1 X1380.235 Y1178.475
G0 F5400 X1366.117 Y1107.74
G1 F2700 X1241.982 Y1231.876 E234762.59315
G1 X1236.679 Y1237.179
G0 F5400 X1203.85 Y1185.154
G1 F2700 X1115.679 Y1273.326 E237873.08092
G1 X1110.376 Y1278.629
G0 F5400 X1468.343 Y1132.794
G1 F2700 X1704.159 Y896.978 E246192.12716
G1 X1709.462 Y891.675
G0 F5400 X1667.588 Y975.975
G1 F2700 X1578.574 Y1064.989 E249332.33639
G1 X1573.271 Y1070.292
G0 F5400 X1577.085 Y759.741
G0 X1576.989 Y759.717
;TYPE:WALL-OUTER
G1 F4590 X1574.839 Y738.273 E249869.94102
G1 X1574.652 Y736.857 E249905.56997
G1 X1574.614 Y735.895 E249929.58588
G1 X1574.73 Y735.039 E249951.13405
G1 X1574.769 Y734.893 E249954.90374
G1 X1574.812 Y734.788 E249957.7341
G1 X1575.004 Y734.149 E249974.37802
G1 X1575.36 Y733.453 E249993.87915
G1 X1575.678 Y733.016 E250007.36089
G1 X1575.765 Y732.92 E250010.5927
G1 X1575.908 Y732.722 E250016.68528
G1 X1576.506 Y732.151 E250037.3106
G1 X1577.203 Y731.671 E250058.42142
G1 X1577.394 Y731.585 E250063.64663
G1 X1577.496 Y731.549 E250066.34485
G1 X1578.01 Y731.316 E250080.42249
G1 X1578.807 Y731.101 E250101.01443
G1 X1579.573 Y731.034 E250120.19533
G1 X1581 Y731.132 E250155.87583
G1 X1581.462 Y731.204
G1 X1635.992 Y739.76 E251532.77448
G1 X1691.149 Y749.244 E252928.86266
G1 X1698.601 Y751.232 E253121.25465
G1 X1705.578 Y754.341 E253311.7941
G1 X1711.893 Y758.648 E253502.47239
G1 X1717.355 Y763.805 E253689.85659
G1 X1719.926 Y767.296 E253798.00769
G1 X1720.078 Y767.485 E253804.05784
G1 X1721.935 Y770.005 E253882.14377
G1 X1724.073 Y774.148 E253998.44118
G1 X1724.177 Y774.335 E254003.77879
G1 X1725.416 Y776.741 E254071.28724
G1 X1726.801 Y781.26 E254189.18969
G1 X1726.871 Y781.461 E254194.49902
G1 X1727.625 Y783.92 E254258.65788
G1 X1728.72 Y792.231 E254467.76829
G1 X1728.78 Y832.174 E255464.15159
G1 X1728.74 Y834.148 E255513.40333
G1 X1724.858 Y872.574 E256476.82286
G1 X1724.783 Y873.062 E256489.139
G1 X1717.573 Y905.819 E257325.82505
G1 X1717.466 Y906.208 E257335.88909
G1 X1705.031 Y940.444 E258244.49807
G1 X1704.887 Y940.785 E258253.7317
G1 X1687.586 Y973.102 E259168.1366
G1 X1687.252 Y973.675 E259184.68115
G1 X1676.058 Y990.23 E259683.19242
G1 X1675.682 Y990.733 E259698.85796
G1 X1647.571 Y1024.425 E260793.42763
G1 X1647.249 Y1024.779 E260805.36484
G1 X1613.353 Y1056.663 E261966.19104
G1 X1611.783 Y1058.02 E262017.95648
G1 X1583.028 Y1080.559 E262929.34293
G1 X1581.298 Y1081.735 E262981.52458
G1 X1532.16 Y1114.376 E264453.06947
G1 X1530.262 Y1115.456 E264507.54356
G1 X1468.064 Y1150.123 E266283.80155
G1 X1466.153 Y1151.085 E266337.17104
G1 X1380.152 Y1192.402 E268717.20909
G1 X1376.027 Y1194.237 E268829.82966
G1 X1286.473 Y1231.559 E271249.99955
G1 X1282.436 Y1233.08 E271357.61334
G1 X1218.091 Y1256.564 E273066.2667
G1 X1213.987 Y1257.885 E273173.81411
G1 X1108.023 Y1291.491 E275946.84474
G1 X1104.211 Y1292.542 E276045.48344
G1 X1035.339 Y1311.906 E277830.11618
G1 X1034.711 Y1312.094 E277846.4686
G1 X1012.524 Y1318.014 E278419.2884
G1 X1003.654 Y1320.395 E278648.38449
G1 X1003.2 Y1320.494 E278659.97569
G1 X799.104 Y1375.328 E283931.71695
G1 X792.376 Y1377.145 E284105.56028
G1 X785.361 Y1379.029 E284286.75117
G1 X772.687 Y1382.433 E284614.10988
G1 X760.727 Y1385.801 E284924.05718
G1 X761.107 Y1381.427
G1 X762.243 Y1368.354 E285169.26268
G1 X767.554 Y1307.273 E286698.68329
G1 X807.925 Y1295.697 E287746.32451
G1 X913.899 Y1266.262 E290489.93503
G1 X920.322 Y1264.43 E290656.5473
G1 X1026.403 Y1233.298 E293414.34981
G1 X1079.197 Y1216.108 E294799.35398
G1 X1085.604 Y1213.866 E294968.67999
G1 X1175.623 Y1180.684 E297361.91065
G1 X1189.875 Y1174.916 E297745.44053
G1 X1193.226 Y1173.456 E297836.62093
G1 X1278.891 Y1135.501 E300173.89496
G1 X1294.733 Y1127.844 E300612.81436
G1 X1298.176 Y1126.099 E300709.1014
G1 X1365.236 Y1091.299 E302593.7502
G1 X1396.584 Y1073.145 E303497.39139
G1 X1400.111 Y1070.899 E303601.69725
G1 X1446.848 Y1040.01 E304999.17461
G1 X1456.436 Y1032.885 E305297.15673
G1 X1488.715 Y1005.944 E306345.96441
G1 X1490.714 Y1004.248 E306411.35873
G1 X1514.528 Y979.519 E307267.75353
G1 X1514.847 Y979.114 E307280.61384
G1 X1518.052 Y975.784 E307395.90481
G1 X1518.705 Y975.418 E307414.5781
G1 X1525.152 Y967.609 E307667.18255
G1 X1525.874 Y966.544 E307699.27856
G1 X1532.17 Y957.513 E307973.89975
G1 X1533.622 Y955.034 E308045.56536
G1 X1539.054 Y943.515 E308363.2547
G1 X1539.827 Y941.818 E308409.77138
G1 X1543.559 Y928.953 E308743.92034
G1 X1543.91 Y927.644 E308777.727
G1 X1544.443 Y924.895 E308847.57814
G1 X1545.751 Y912.273 E309164.1213
G1 X1545.929 Y910.42 E309210.55735
G1 X1545.191 Y897.043 E309544.7554
G1 X1545.097 Y895.695 E309578.46306
G1 X1544.684 Y892.881 E309649.41056
G1 X1541.319 Y878.782 E310010.9898
G1 X1536.187 Y866.378 E310345.84621
G1 X1535.652 Y865.127 E310379.78646
G1 X1534.321 Y862.591 E310451.2308
G1 X1526.481 Y850.396 E310812.87767
G1 X1516.677 Y839.442 E311179.58638
G1 X1514.562 Y837.473 E311251.66947
G1 X1513.497 Y836.628 E311285.58242
G1 X1503.089 Y828.519 E311614.70876
G1 X1490.212 Y821.423 E311981.46991
G1 X1487.597 Y820.279 E312052.67042
G1 X1486.298 Y819.823 E312087.01265
G1 X1473.78 Y815.61 E312416.48606
G1 X1459.368 Y813.188 E312781.03619
G1 X830.314 Y758.504 E328532.03122
G1 X815.371 Y757.205 E328906.19165
G1 X816.67 Y742.261 E329280.37693
G1 X817.996 Y727.018 E329662.0511
G1 X1523.294 Y788.329 E347322.1312
G1 X1525.754 Y788.478 E347383.60861
G1 X1527.32 Y788.498 E347422.67583
G1 X1534.09 Y788.19 E347591.72884
G1 X1536.048 Y787.915 E347641.05073
G1 X1542.859 Y786.508 E347814.53915
G1 X1545.489 Y785.698 E347883.18579
G1 X1551.862 Y783.147 E348054.42392
G1 X1553.591 Y782.289 E348102.57252
G1 X1559.587 Y778.704 E348276.83908
G1 X1561.892 Y777.036 E348347.81326
