;FLAVOR:Marlin
;TIME:665
;Filament used: 2.63179m
;Layer height: 0.6
;Generated with Cura_SteamEngine 3.1.0
M104 S200
M109 S200
M82 ; absolute extrusion mode
G28 ;Home
G1 Z15.0 F6000 ;Move the platform down 15mm
;Prime the extruder
G92 E0
G1 F200 E3
G92 E0
;LAYER_COUNT:29
;LAYER:0
M107
G0 F3600 X2990.177 Y2997.012 Z0.3
;TYPE:WALL-INNER
G1 F1800 X2990.388 Y2997.658 E0.02557
G1 X2990.631 Y2998.296 E0.05125
G1 X2990.906 Y2998.922 E0.07697
G1 X2991.212 Y2999.531 E0.10262
G1 X2991.549 Y3000.123 E0.12824
G1 X2991.913 Y3000.7 E0.15391
G1 X2992.307 Y3001.257 E0.17958
G1 X2992.728 Y3001.794 E0.20525
G1 X2993.177 Y3002.31 E0.23098
G1 X2993.65 Y3002.802 E0.25666
G1 X2994.146 Y3003.269 E0.28229
G1 X2994.664 Y3003.711 E0.3079
G1 X2995.205 Y3004.127 E0.33358
G1 X2995.766 Y3004.516 E0.35926
G1 X2996.346 Y3004.876 E0.38494
G1 X2996.943 Y3005.207 E0.41062
G1 X2997.554 Y3005.506 E0.43621
G1 X2998.16 Y3005.767 E0.46104
G1 X2998.799 Y3006.006 E0.4867
G1 X2999.449 Y3006.213 E0.51237
G1 X3000.11 Y3006.387 E0.53808
G1 X3000.776 Y3006.527 E0.56369
G1 X3001.449 Y3006.635 E0.58933
G1 X3002.13 Y3006.709 E0.6151
G1 X3002.81 Y3006.747 E0.64072
G1 X3003.492 Y3006.752 E0.66638
G1 X3004.174 Y3006.723 E0.69206
G1 X3004.853 Y3006.661 E0.71771
G1 X3005.529 Y3006.564 E0.7434
G1 X3006.199 Y3006.434 E0.76908
G1 X3006.862 Y3006.27 E0.79478
G1 X3007.515 Y3006.073 E0.82044
G1 X3008.047 Y3005.884 E0.84168
G1 X3008.66 Y3005.762 E0.86519
G1 X3009.336 Y3005.662 E0.8909
G1 X3009.988 Y3005.599 E0.91554
G1 X3010.691 Y3005.565 E0.94202
G1 X3011.373 Y3005.567 E0.96768
G1 X3012.029 Y3005.6 E0.99239
G1 X3012.714 Y3005.669 E1.01829
G1 X3013.396 Y3005.772 E1.04424
G1 X3014.065 Y3005.908 E1.06992
G1 X3014.715 Y3006.073 E1.09515
G1 X3015.377 Y3006.277 E1.12121
G1 X3015.981 Y3006.496 E1.14538
G1 X3016.636 Y3006.771 E1.17211
G1 X3017.262 Y3007.07 E1.19821
G1 X3017.826 Y3007.375 E1.22233
G1 X3018.43 Y3007.742 E1.24892
G1 X3018.972 Y3008.109 E1.27354
G1 X3019.554 Y3008.546 E1.30092
G1 X3020.041 Y3008.952 E1.32478
G1 X3020.56 Y3009.429 E1.3513
G1 X3021.029 Y3009.906 E1.37646
G1 X3021.482 Y3010.413 E1.40204
G1 X3021.913 Y3010.946 E1.42783
G1 X3022.306 Y3011.486 E1.45295
G1 X3022.679 Y3012.055 E1.47855
G1 X3023.021 Y3012.637 E1.50395
G1 X3023.354 Y3013.276 E1.53106
G1 X3023.623 Y3013.858 E1.55518
G1 X3023.879 Y3014.497 E1.58107
G1 X3024.108 Y3015.157 E1.60736
G1 X3024.296 Y3015.803 E1.63267
G1 X3024.453 Y3016.465 E1.65826
G1 X3024.574 Y3017.113 E1.68306
G1 X3024.668 Y3017.81 E1.70952
G1 X3024.725 Y3018.473 E1.73456
G1 X3024.75 Y3019.143 E1.75978
G1 X3024.74 Y3019.846 E1.78623
G1 X3024.699 Y3020.497 E1.81077
G1 X3024.621 Y3021.199 E1.83734
G1 X3024.513 Y3021.853 E1.86228
G1 X3024.373 Y3022.51 E1.88755
G1 X3024.193 Y3023.184 E1.9138
G1 X3023.984 Y3023.836 E1.93956
G1 X3023.749 Y3024.463 E1.96475
G1 X3023.484 Y3025.077 E1.98991
G1 X3023.177 Y3025.699 E2.016
G1 X3022.848 Y3026.289 E2.04142
G1 X3022.492 Y3026.859 E2.0667
G1 X3022.098 Y3027.43 E2.0928
G1 X3021.684 Y3027.967 E2.11831
G1 X3021.246 Y3028.481 E2.14371
G1 X3020.774 Y3028.983 E2.16964
G1 X3020.3 Y3029.439 E2.19438
G1 X3019.769 Y3029.903 E2.22091
G1 X3019.254 Y3030.308 E2.24556
G1 X3018.682 Y3030.716 E2.27199
G1 X3018.13 Y3031.068 E2.29662
G1 X3017.525 Y3031.414 E2.32284
G1 X3016.906 Y3031.727 E2.34894
G1 X3016.316 Y3031.992 E2.37327
G1 X3015.656 Y3032.248 E2.3999
G1 X3015.023 Y3032.459 E2.425
G1 X3014.352 Y3032.646 E2.45121
G1 X3013.706 Y3032.793 E2.47613
G1 X3013.039 Y3032.909 E2.5016
G1 X3012.362 Y3032.993 E2.52727
G1 X3011.681 Y3033.043 E2.55296
G1 X3010.97 Y3033.061 E2.57971
G1 X2989.03 Y3033.061 E3.40512
G1 X2988.321 Y3033.043 E3.4318
G1 X2987.649 Y3032.994 E3.45715
G1 X2986.978 Y3032.912 E3.48258
G1 X2986.31 Y3032.796 E3.50809
G1 X2985.669 Y3032.651 E3.53282
G1 X2985.012 Y3032.47 E3.55845
G1 X2984.369 Y3032.257 E3.58394
G1 X2983.742 Y3032.016 E3.60921
G1 X2983.123 Y3031.741 E3.63469
G1 X2982.516 Y3031.436 E3.66025
G1 X2981.932 Y3031.105 E3.6855
G1 X2981.355 Y3030.739 E3.71121
G1 X2980.818 Y3030.36 E3.73593
G1 X2980.275 Y3029.937 E3.76183
G1 X2979.766 Y3029.498 E3.78712
G1 X2979.278 Y3029.034 E3.81245
G1 X2978.813 Y3028.545 E3.83784
G1 X2978.375 Y3028.037 E3.86307
G1 X2977.952 Y3027.495 E3.88894
G1 X2977.567 Y3026.948 E3.9141
G1 X2977.201 Y3026.372 E3.93978
G1 X2976.873 Y3025.791 E3.96488
G1 X2976.575 Y3025.196 E3.98991
G1 X2976.29 Y3024.557 E4.01623
G1 X2976.058 Y3023.955 E4.04051
G1 X2975.844 Y3023.305 E4.06625
G1 X2975.659 Y3022.636 E4.09236
G1 X2975.516 Y3022.002 E4.11681
G1 X2975.4 Y3021.335 E4.14228
G1 X2975.316 Y3020.659 E4.16791
G1 X2975.269 Y3019.993 E4.19303
G1 X2975.25 Y3019.29 E4.21949
G1 X2975.25 Y2996.637 E5.07172
G1 X2990.074 Y2996.637 E5.62941
G1 X2990.177 Y2997.012 E5.64404
G0 F3600 X2990.082 Y2997.04
G0 X2988.675 Y3014.973
G0 X2988.682 Y3015.072
G1 F1800 X2988.265 Y3015.125 E5.65986
G1 X2987.85 Y3015.217 E5.67585
G1 X2987.447 Y3015.354 E5.69186
G1 X2987.06 Y3015.528 E5.70783
G1 X2986.693 Y3015.74 E5.72377
G1 X2986.35 Y3015.988 E5.7397
G1 X2986.032 Y3016.267 E5.75561
G1 X2985.744 Y3016.578 E5.77156
G1 X2985.487 Y3016.916 E5.78753
G1 X2985.266 Y3017.28 E5.80355
G1 X2985.09 Y3017.644 E5.81876
G1 X2985 Y3017.871 E5.82795
G1 X2984.88 Y3018.265 E5.84344
G1 X2984.797 Y3018.677 E5.85926
G1 X2984.754 Y3019.098 E5.87518
G1 X2984.754 Y3019.524 E5.8912
G1 X2984.797 Y3019.946 E5.90716
G1 X2984.881 Y3020.359 E5.92302
G1 X2985.005 Y3020.766 E5.93902
G1 X2985.17 Y3021.156 E5.95495
G1 X2985.372 Y3021.529 E5.97091
G1 X2985.612 Y3021.879 E5.98688
G1 X2985.884 Y3022.203 E6.00279
G1 X2986.187 Y3022.498 E6.0187
G1 X2986.518 Y3022.763 E6.03466
G1 X2986.875 Y3022.994 E6.05065
G1 X2987.251 Y3023.186 E6.06654
G1 X2987.646 Y3023.342 E6.08251
G1 X2988.056 Y3023.456 E6.09852
G1 X2988.472 Y3023.53 E6.11442
G1 X2988.894 Y3023.561 E6.13034
G1 X2989.317 Y3023.551 E6.14626
G1 X2989.739 Y3023.498 E6.16226
G1 X2990.151 Y3023.404 E6.17815
G1 X2990.554 Y3023.269 E6.19414
G1 X2990.941 Y3023.093 E6.21014
G1 X2991.307 Y3022.883 E6.22601
G1 X2991.65 Y3022.636 E6.24191
G1 X2991.969 Y3022.356 E6.25788
G1 X2992.258 Y3022.043 E6.27391
G1 X2992.514 Y3021.705 E6.28986
G1 X2992.734 Y3021.345 E6.30573
G1 X2992.911 Y3020.979 E6.32103
G1 X2993.001 Y3020.752 E6.33022
G1 X2993.121 Y3020.358 E6.34571
G1 X2993.204 Y3019.946 E6.36152
G1 X2993.247 Y3019.524 E6.37748
G1 X2993.247 Y3019.098 E6.39351
G1 X2993.204 Y3018.677 E6.40943
G1 X2993.12 Y3018.264 E6.42528
G1 X2992.996 Y3017.857 E6.44129
G1 X2992.831 Y3017.467 E6.45722
G1 X2992.629 Y3017.094 E6.47318
G1 X2992.389 Y3016.744 E6.48915
G1 X2992.117 Y3016.42 E6.50506
G1 X2991.814 Y3016.125 E6.52097
G1 X2991.483 Y3015.86 E6.53692
G1 X2991.126 Y3015.63 E6.5529
G1 X2990.75 Y3015.436 E6.56882
G1 X2990.369 Y3015.287 E6.58421
G1 X2990.136 Y3015.214 E6.59339
G1 X2989.754 Y3015.129 E6.60812
G1 X2989.518 Y3015.092 E6.6171
G1 X2989.106 Y3015.061 E6.63265
G1 X2988.682 Y3015.072 E6.6486
G0 F3600 X2988.675 Y3014.973
G0 X3009.335 Y3009.867
G0 X3010.76 Y3009.665
G0 X3010.762 Y3009.764
G1 F1800 X3010.286 Y3009.788 E6.66653
G1 X3009.813 Y3009.835 E6.68442
G1 X3009.341 Y3009.906 E6.70237
G1 X3008.875 Y3010.001 E6.72027
G1 X3008.415 Y3010.118 E6.73812
G1 X3007.957 Y3010.259 E6.75615
G1 X3007.512 Y3010.422 E6.77398
G1 X3007.074 Y3010.605 E6.79184
G1 X3006.643 Y3010.813 E6.80984
G1 X3006.225 Y3011.04 E6.82774
G1 X3005.818 Y3011.289 E6.84569
G1 X3005.425 Y3011.557 E6.86358
G1 X3005.046 Y3011.844 E6.88147
G1 X3004.68 Y3012.151 E6.89944
G1 X3004.331 Y3012.476 E6.91738
G1 X3004 Y3012.816 E6.93523
G1 X3003.686 Y3013.171 E6.95306
G1 X3003.387 Y3013.545 E6.97108
G1 X3003.109 Y3013.933 E6.98903
G1 X3002.853 Y3014.331 E7.00684
G1 X3002.614 Y3014.742 E7.02472
G1 X3002.396 Y3015.166 E7.04266
G1 X3002.2 Y3015.601 E7.06061
G1 X3002.026 Y3016.045 E7.07855
G1 X3001.876 Y3016.496 E7.09643
G1 X3001.745 Y3016.954 E7.11435
G1 X3001.64 Y3017.419 E7.13229
G1 X3001.556 Y3017.887 E7.15018
G1 X3001.498 Y3018.362 E7.16818
G1 X3001.462 Y3018.835 E7.18602
G1 X3001.45 Y3019.311 E7.20394
G1 X3001.462 Y3019.788 E7.22189
G1 X3001.498 Y3020.261 E7.23973
G1 X3001.556 Y3020.735 E7.2577
G1 X3001.64 Y3021.204 E7.27563
G1 X3001.745 Y3021.669 E7.29356
G1 X3001.876 Y3022.128 E7.31152
G1 X3002.026 Y3022.576 E7.32929
G1 X3002.199 Y3023.022 E7.34729
G1 X3002.396 Y3023.457 E7.36525
G1 X3002.614 Y3023.881 E7.38319
G1 X3002.853 Y3024.292 E7.40108
G1 X3003.109 Y3024.69 E7.41888
G1 X3003.387 Y3025.077 E7.43681
G1 X3003.685 Y3025.451 E7.4548
G1 X3004 Y3025.807 E7.47268
G1 X3004.331 Y3026.146 E7.4905
G1 X3004.68 Y3026.472 E7.50847
G1 X3005.046 Y3026.779 E7.52644
G1 X3005.425 Y3027.066 E7.54433
G1 X3005.819 Y3027.334 E7.56226
G1 X3006.225 Y3027.582 E7.58015
G1 X3006.643 Y3027.81 E7.59807
G1 X3007.073 Y3028.016 E7.616
G1 X3007.512 Y3028.202 E7.63394
G1 X3007.96 Y3028.364 E7.65186
G1 X3008.412 Y3028.504 E7.66966
G1 X3008.874 Y3028.622 E7.6876
G1 X3009.341 Y3028.717 E7.70553
G1 X3009.813 Y3028.788 E7.72349
G1 X3010.286 Y3028.835 E7.74137
G1 X3010.762 Y3028.859 E7.7593
G1 X3011.239 Y3028.859 E7.77725
G1 X3011.715 Y3028.835 E7.79518
G1 X3012.188 Y3028.788 E7.81306
G1 X3012.66 Y3028.717 E7.83102
G1 X3013.127 Y3028.622 E7.84895
G1 X3013.589 Y3028.504 E7.86689
G1 X3014.041 Y3028.364 E7.88469
G1 X3014.489 Y3028.202 E7.90261
G1 X3014.928 Y3028.016 E7.92055
G1 X3015.358 Y3027.81 E7.93848
G1 X3015.775 Y3027.582 E7.95636
G1 X3016.181 Y3027.335 E7.97424
G1 X3016.576 Y3027.066 E7.99222
G1 X3016.955 Y3026.779 E8.01011
G1 X3017.321 Y3026.472 E8.02808
G1 X3017.67 Y3026.146 E8.04605
G1 X3018.001 Y3025.807 E8.06387
G1 X3018.316 Y3025.451 E8.08175
G1 X3018.614 Y3025.077 E8.09974
G1 X3018.892 Y3024.69 E8.11767
G1 X3019.148 Y3024.292 E8.13547
G1 X3019.387 Y3023.881 E8.15336
G1 X3019.605 Y3023.457 E8.1713
G1 X3019.802 Y3023.022 E8.18926
G1 X3019.975 Y3022.576 E8.20726
G1 X3020.125 Y3022.128 E8.22503
G1 X3020.256 Y3021.669 E8.24299
G1 X3020.361 Y3021.204 E8.26092
G1 X3020.445 Y3020.735 E8.27885
G1 X3020.503 Y3020.261 E8.29682
G1 X3020.539 Y3019.788 E8.31466
G1 X3020.55 Y3019.311 E8.33261
G1 X3020.539 Y3018.835 E8.35052
G1 X3020.503 Y3018.362 E8.36837
G1 X3020.445 Y3017.887 E8.38637
G1 X3020.361 Y3017.419 E8.40426
G1 X3020.256 Y3016.954 E8.4222
G1 X3020.125 Y3016.496 E8.44012
G1 X3019.975 Y3016.045 E8.458
G1 X3019.801 Y3015.601 E8.47594
G1 X3019.605 Y3015.166 E8.49389
G1 X3019.387 Y3014.742 E8.51182
G1 X3019.148 Y3014.331 E8.52971
G1 X3018.892 Y3013.933 E8.54751
G1 X3018.614 Y3013.545 E8.56547
G1 X3018.315 Y3013.171 E8.58349
G1 X3018.001 Y3012.816 E8.60132
G1 X3017.67 Y3012.476 E8.61917
G1 X3017.321 Y3012.151 E8.63711
G1 X3016.955 Y3011.844 E8.65508
G1 X3016.576 Y3011.557 E8.67297
G1 X3016.182 Y3011.289 E8.69089
G1 X3015.775 Y3011.04 E8.70884
G1 X3015.358 Y3010.813 E8.7267
G1 X3014.927 Y3010.605 E8.74471
G1 X3014.489 Y3010.422 E8.76257
G1 X3014.044 Y3010.259 E8.7804
G1 X3013.586 Y3010.118 E8.79842
G1 X3013.126 Y3010.001 E8.81628
G1 X3012.66 Y3009.906 E8.83417
G1 X3012.188 Y3009.835 E8.85213
G1 X3011.715 Y3009.788 E8.87001
G1 X3011.239 Y3009.764 E8.88794
G1 X3010.762 Y3009.764 E8.90589
G0 F3600 X3010.782 Y3010.564
;TYPE:WALL-OUTER
G1 F1800 X3010.346 Y3010.586 E8.92231
G1 X3009.912 Y3010.629 E8.93872
G1 X3009.48 Y3010.694 E8.95515
G1 X3009.053 Y3010.781 E8.97155
G1 X3008.631 Y3010.888 E8.98793
G1 X3008.213 Y3011.017 E9.00438
G1 X3007.804 Y3011.167 E9.02077
G1 X3007.402 Y3011.335 E9.03717
G1 X3007.008 Y3011.525 E9.05362
G1 X3006.625 Y3011.733 E9.07002
G1 X3006.253 Y3011.961 E9.08643
G1 X3005.892 Y3012.207 E9.10287
G1 X3005.545 Y3012.47 E9.11925
G1 X3005.21 Y3012.751 E9.1357
G1 X3004.89 Y3013.048 E9.15212
G1 X3004.587 Y3013.36 E9.16848
G1 X3004.298 Y3013.686 E9.18487
G1 X3004.025 Y3014.028 E9.20134
G1 X3003.771 Y3014.383 E9.21776
G1 X3003.535 Y3014.749 E9.23414
G1 X3003.316 Y3015.126 E9.25055
G1 X3003.117 Y3015.514 E9.26695
G1 X3002.937 Y3015.912 E9.28338
G1 X3002.778 Y3016.318 E9.29979
G1 X3002.64 Y3016.732 E9.31621
G1 X3002.52 Y3017.152 E9.33264
G1 X3002.424 Y3017.578 E9.34907
G1 X3002.347 Y3018.006 E9.36543
G1 X3002.294 Y3018.441 E9.38191
G1 X3002.261 Y3018.875 E9.39829
G1 X3002.25 Y3019.311 E9.4147
G1 X3002.261 Y3019.748 E9.43114
G1 X3002.294 Y3020.182 E9.44752
G1 X3002.347 Y3020.616 E9.46397
G1 X3002.424 Y3021.045 E9.48036
G1 X3002.52 Y3021.471 E9.49679
G1 X3002.64 Y3021.891 E9.51322
G1 X3002.778 Y3022.304 E9.52961
G1 X3002.937 Y3022.711 E9.54605
G1 X3003.117 Y3023.109 E9.56248
G1 X3003.316 Y3023.497 E9.57888
G1 X3003.535 Y3023.874 E9.59529
G1 X3003.771 Y3024.24 E9.61167
G1 X3004.025 Y3024.594 E9.62806
G1 X3004.298 Y3024.936 E9.64452
G1 X3004.587 Y3025.263 E9.66094
G1 X3004.89 Y3025.574 E9.67728
G1 X3005.21 Y3025.872 E9.69373
G1 X3005.545 Y3026.153 E9.71018
G1 X3005.892 Y3026.416 E9.72656
G1 X3006.253 Y3026.662 E9.74299
G1 X3006.625 Y3026.889 E9.75939
G1 X3007.008 Y3027.098 E9.7758
G1 X3007.402 Y3027.287 E9.79224
G1 X3007.804 Y3027.457 E9.80866
G1 X3008.214 Y3027.605 E9.82506
G1 X3008.63 Y3027.734 E9.84145
G1 X3009.053 Y3027.842 E9.85787
G1 X3009.48 Y3027.929 E9.87427
G1 X3009.912 Y3027.994 E9.8907
G1 X3010.346 Y3028.037 E9.90711
G1 X3010.782 Y3028.059 E9.92353
G1 X3011.219 Y3028.059 E9.93997
G1 X3011.655 Y3028.037 E9.9564
G1 X3012.089 Y3027.994 E9.9728
G1 X3012.521 Y3027.929 E9.98924
G1 X3012.948 Y3027.842 E10.00563
G1 X3013.371 Y3027.734 E10.02206
G1 X3013.787 Y3027.605 E10.03844
G1 X3014.197 Y3027.457 E10.05484
G1 X3014.599 Y3027.287 E10.07126
G1 X3014.993 Y3027.098 E10.0877
G1 X3015.375 Y3026.889 E10.10408
G1 X3015.748 Y3026.662 E10.12051
G1 X3016.109 Y3026.416 E10.13695
G1 X3016.456 Y3026.153 E10.15333
G1 X3016.791 Y3025.872 E10.16978
G1 X3017.111 Y3025.574 E10.18623
G1 X3017.414 Y3025.263 E10.20256
G1 X3017.703 Y3024.936 E10.21898
G1 X3017.976 Y3024.594 E10.23544
G1 X3018.23 Y3024.24 E10.25183
G1 X3018.466 Y3023.874 E10.26822
G1 X3018.685 Y3023.497 E10.28462
G1 X3018.884 Y3023.109 E10.30102
G1 X3019.064 Y3022.711 E10.31746
G1 X3019.223 Y3022.304 E10.3339
G1 X3019.361 Y3021.891 E10.35028
G1 X3019.481 Y3021.471 E10.36671
G1 X3019.577 Y3021.045 E10.38314
G1 X3019.654 Y3020.616 E10.39954
G1 X3019.707 Y3020.182 E10.41599
G1 X3019.74 Y3019.748 E10.43236
G1 X3019.75 Y3019.311 E10.44881
G1 X3019.74 Y3018.875 E10.46521
G1 X3019.707 Y3018.441 E10.48159
G1 X3019.654 Y3018.006 E10.49807
G1 X3019.577 Y3017.578 E10.51443
G1 X3019.481 Y3017.152 E10.53086
G1 X3019.361 Y3016.732 E10.5473
G1 X3019.223 Y3016.318 E10.56371
G1 X3019.064 Y3015.912 E10.58012
G1 X3018.884 Y3015.514 E10.59655
G1 X3018.685 Y3015.126 E10.61296
G1 X3018.466 Y3014.749 E10.62936
G1 X3018.23 Y3014.383 E10.64574
G1 X3017.976 Y3014.028 E10.66216
G1 X3017.703 Y3013.686 E10.67863
G1 X3017.414 Y3013.36 E10.69502
G1 X3017.111 Y3013.048 E10.71138
G1 X3016.791 Y3012.751 E10.7278
G1 X3016.456 Y3012.47 E10.74425
G1 X3016.109 Y3012.207 E10.76063
G1 X3015.748 Y3011.961 E10.77707
G1 X3015.375 Y3011.733 E10.79352
G1 X3014.993 Y3011.525 E10.80988
G1 X3014.599 Y3011.335 E10.82633
G1 X3014.197 Y3011.167 E10.84273
G1 X3013.788 Y3011.017 E10.85912
G1 X3013.37 Y3010.888 E10.87557
G1 X3012.948 Y3010.781 E10.89195
G1 X3012.521 Y3010.694 E10.90835
G1 X3012.089 Y3010.629 E10.92478
G1 X3011.655 Y3010.586 E10.94119
G1 X3011.219 Y3010.564 E10.95761
G1 X3010.782 Y3010.564 E10.97405
G0 F3600 X3010.582 Y3010.574
G0 X3010.537 Y3009.675
G0 X3008.811 Y3010.002
G0 X2988.631 Y3014.978
G0 X2988.743 Y3015.871
G1 F1800 X2988.402 Y3015.914 E10.98698
G1 X2988.066 Y3015.989 E10.99993
G1 X2987.74 Y3016.099 E11.01288
G1 X2987.426 Y3016.241 E11.02584
G1 X2987.128 Y3016.413 E11.03879
G1 X2986.849 Y3016.614 E11.05172
G1 X2986.591 Y3016.841 E11.06465
G1 X2986.357 Y3017.093 E11.07759
G1 X2986.149 Y3017.367 E11.09053
G1 X2985.97 Y3017.662 E11.10351
G1 X2985.823 Y3017.966 E11.11622
G1 X2985.756 Y3018.135 E11.12306
G1 X2985.657 Y3018.461 E11.13587
G1 X2985.589 Y3018.797 E11.14877
G1 X2985.554 Y3019.139 E11.1617
G1 X2985.554 Y3019.483 E11.17465
G1 X2985.589 Y3019.826 E11.18762
G1 X2985.657 Y3020.162 E11.20051
G1 X2985.758 Y3020.492 E11.2135
G1 X2985.892 Y3020.809 E11.22645
G1 X2986.056 Y3021.111 E11.23937
G1 X2986.25 Y3021.395 E11.25231
G1 X2986.471 Y3021.658 E11.26524
G1 X2986.717 Y3021.898 E11.27817
G1 X2986.986 Y3022.113 E11.29112
G1 X2987.275 Y3022.3 E11.30407
